logo/httpie-icon.svg

<?xml version="1.0" encoding="UTF-8"?>
<svg width="256px" height="306px" viewBox="0 0 256 306" version="1.1" xmlns="http://www.w3.org/2000/svg" xmlns:xlink="http://www.w3.org/1999/xlink" preserveAspectRatio="xMidYMid">
    <title>httpie</title>
    <g>
        <path d="M256,66.2798805 C255.732226,29.407965 224.97426,0 188.102344,0 L67.9587024,0 C31.3658737,0 0.718243862,28.9471472 0.0107911615,65.5529567 C-0.311290753,83.4942468 6.58801396,100.81275 19.1587608,113.617825 C31.7295076,126.422901 48.9176477,133.640851 66.8618262,133.650147 L120.537366,133.650147 C122.336578,133.703566 123.864732,134.983121 124.233453,136.744956 C124.602173,138.506791 123.715367,140.291754 122.08857,141.062174 L39.803383,177.129281 C15.4634407,187.918888 -0.163474983,212.112443 0.0107911615,238.73608 C0.289878007,275.614486 31.0283733,305.048412 67.9132696,305.048412 L96.068589,305.048412 C133.213101,305.048412 164.139818,275.257514 164.081404,238.113002 C164.005483,210.900319 147.457442,186.443911 122.224868,176.253078 C120.793328,175.662566 119.854038,174.272824 119.839884,172.724338 C119.825729,171.175852 120.739458,169.769172 122.159964,169.15259 L216.270644,127.886679 C240.586348,117.078867 256.185616,92.8886603 256,66.2798805 Z" fill="#000000"></path>
    </g>
</svg>

<svg viewBox="0 0 256 306" xmlns="http://www.w3.org/2000/svg"><path d="M256 66.27c-.27-36.88-31.03-66.28-67.9-66.28H67.95C31.35-.01.7 28.93-.001 65.54c-.33 17.94 6.57 35.25 19.14 48.06 12.57 12.8 29.75 20.02 47.7 20.03h53.67c1.79.05 3.32 1.33 3.69 3.09 .36 1.76-.52 3.54-2.15 4.31l-82.29 36.06c-24.34 10.78-39.97 34.98-39.8 61.6C.23 275.56 30.97 305 67.86 305h28.15c37.14 0 68.07-29.8 68.01-66.94 -.08-27.22-16.63-51.67-41.86-61.86 -1.44-.6-2.38-1.99-2.39-3.53 -.02-1.55.89-2.96 2.32-3.58l94.11-41.27c24.31-10.81 39.91-35 39.72-61.61Z"/></svg>
